src/public/images/research-program.svg

<svg width="200" height="351" viewBox="0 0 200 351" fill="none" xmlns="http://www.w3.org/2000/svg">
<g clip-path="url(#clip0_373_87)">
<path fill-rule="evenodd" clip-rule="evenodd" d="M91.3065 99.3242C96.7102 96.2081 105.471 96.2081 110.875 99.3242L179.374 138.823C181.285 139.925 182.474 141.952 182.502 144.159L183.711 234.84C183.711 241.072 179.331 248.65 173.927 251.766L102.956 292.13C101.029 293.225 98.667 293.218 96.7468 292.111L28.2852 252.633C22.8816 249.517 18.501 241.939 18.501 235.706L18.5031 146.089C18.5031 143.881 19.6669 141.836 21.565 140.709L91.3065 99.3242ZM108.918 100.453L177.417 139.953C179.327 141.053 180.516 143.081 180.546 145.287L181.755 235.968L181.745 236.438C181.535 241.33 178.115 247.094 173.927 249.51L102.956 289.872C101.029 290.968 98.667 290.962 96.7468 289.853L28.2852 250.376C24.0975 247.961 20.6772 242.197 20.4674 237.306L20.4579 236.835V147.217C20.4579 145.009 21.6216 142.964 23.5197 141.839L93.2633 100.453L93.6761 100.226C98.0216 97.9615 104.73 98.0377 108.918 100.453Z" fill="url(#paint0_linear_373_87)"/>
<path d="M112.541 227.926C118.789 227.926 123.787 232.927 123.787 239.179C123.787 241.379 123.162 243.455 122.062 245.18L129.76 252.932L126.286 256.407L118.489 248.73C116.764 249.806 114.715 250.43 112.541 250.43C106.293 250.43 101.295 245.43 101.295 239.179C101.295 232.927 106.293 227.926 112.541 227.926ZM112.541 232.927C110.884 232.927 109.295 233.585 108.123 234.758C106.952 235.93 106.293 237.52 106.293 239.179C106.293 240.836 106.952 242.427 108.123 243.599C109.295 244.771 110.884 245.43 112.541 245.43C114.198 245.43 115.787 244.771 116.959 243.599C118.13 242.427 118.789 240.836 118.789 239.179C118.789 237.52 118.13 235.93 116.959 234.758C115.787 233.585 114.198 232.927 112.541 232.927ZM98.7962 207.921C101.447 207.921 103.99 208.976 105.865 210.852C107.739 212.727 108.792 215.271 108.792 217.923C108.792 220.2 108.018 222.3 106.743 224C104.594 224.8 102.67 226.076 101.07 227.675L98.7962 227.926C96.145 227.926 93.6025 226.873 91.7277 224.996C89.8531 223.12 88.8 220.576 88.8 217.923C88.8 215.271 89.8531 212.727 91.7277 210.852C93.6025 208.976 96.145 207.921 98.7962 207.921ZM78.8037 247.93V242.929C78.8037 237.628 87.0756 233.278 97.5466 232.927C96.747 234.877 96.2971 236.978 96.2971 239.179C96.2971 242.404 97.2467 245.43 98.7962 247.93H78.8037Z" fill="#389D2D"/>
<path d="M96.6538 109.873L35.39 145.264C32.6996 146.819 32.6996 149.338 35.39 150.893L94.7728 185.198C97.4632 186.752 101.825 186.752 104.516 185.198L165.779 149.806C168.47 148.252 168.47 145.732 165.779 144.178L106.397 109.873C103.706 108.319 99.3442 108.319 96.6538 109.873Z" stroke="#DDDDDD"/>
<path d="M95.3517 4.86846L28.6113 71.6483C26.4146 73.8463 26.4146 77.4099 28.6113 79.6079L95.3517 146.388C97.5484 148.586 101.11 148.586 103.307 146.388L170.047 79.6079C172.244 77.4099 172.244 73.8463 170.047 71.6483L103.307 4.86846C101.11 2.67046 97.5484 2.67047 95.3517 4.86846Z" fill="url(#paint1_linear_373_87)" stroke="url(#paint2_linear_373_87)"/>
<path d="M95.6031 50.9665C95.4991 50.9854 94.8657 51.1081 94.2041 51.2402C87.398 52.5892 81.178 57.2213 77.8506 63.4289C76.4705 65.995 75.5346 68.8818 75.1187 71.8441C74.9391 73.1931 74.9675 76.8064 75.1755 78.1649C75.6009 80.9573 76.272 83.1084 77.4441 85.4763C78.7865 88.1744 80.2327 90.1461 82.388 92.2216C84.3636 94.1272 86.1219 95.3443 88.7025 96.6085C90.2717 97.3727 91.5479 97.8443 93.1926 98.2594C95.3667 98.8066 95.7639 98.8443 99.5355 98.7971C102.797 98.7593 103.033 98.75 104.073 98.5236C111.541 96.8726 117.6 92.1367 120.89 85.382C122.44 82.2121 123.177 79.231 123.319 75.712C123.631 67.363 119.585 59.5043 112.524 54.759C110.444 53.3628 107.58 52.0892 105.122 51.476C102.986 50.9289 102.617 50.9005 99.0629 50.91C97.2669 50.9194 95.7071 50.9383 95.6031 50.9665ZM101.398 51.8345L101.899 51.8911L101.587 52.4761C100.405 54.7025 100.244 54.976 99.8759 55.2873C99.4126 55.6836 99.129 55.7685 97.7772 55.9006C96.0474 56.0609 95.537 56.2214 94.9981 56.7591C94.6106 57.1364 94.3175 57.7214 94.0056 58.7307C93.6275 59.9194 93.3439 60.1176 92.7577 59.5988C92.2474 59.1554 91.9637 58.6931 91.8597 58.1081C91.7464 57.4949 91.5762 57.2025 90.9334 56.5327C90.2717 55.8345 89.6856 55.4477 89.213 55.3723C88.9861 55.3345 88.7214 55.2684 88.6364 55.2213C88.4756 55.1459 88.1826 54.6741 88.1826 54.5044C88.1826 54.3912 89.8464 53.6175 91.0846 53.1552C92.3135 52.7024 94.223 52.193 95.518 51.9854C97.2952 51.7025 99.7435 51.6364 101.398 51.8345ZM111.985 55.8723C112.59 56.2873 112.968 56.7591 114.66 59.2497C115.312 60.2025 115.605 60.3252 116.295 59.9194L116.692 59.6931L117.241 60.3912C119.33 63.0327 120.786 65.9384 121.608 69.0987C121.844 69.9761 122.222 72.0516 122.166 72.1083C122.147 72.1271 121.892 72.2026 121.589 72.2875C120.672 72.5234 120.37 72.4196 119.405 71.5517C118.451 70.6932 117.458 70.1177 116.985 70.1649C116.721 70.1931 116.683 70.2309 116.664 70.4762C116.645 70.7308 116.749 70.8535 117.694 71.6554C119.793 73.429 119.944 73.6271 119.944 74.4668C119.944 75.0516 119.698 75.778 119.434 75.9479C119.33 76.0139 118.942 76.1082 118.574 76.146C117.78 76.2214 117.383 76.3819 116.853 76.8158C116.456 77.1366 116.362 77.3725 116.503 77.7309C116.532 77.8159 116.91 78.1366 117.345 78.4479C118.177 79.0517 118.763 79.6366 118.904 80.0139C119.037 80.3441 119.018 81.0612 118.886 81.3064C118.744 81.5895 118.507 81.7404 117.713 82.0895C116.796 82.4856 116.305 82.9007 116.002 83.5329C115.615 84.3631 115.577 84.5895 115.501 86.9858C115.454 88.6839 115.397 89.3537 115.284 89.6556C114.859 90.7876 112.959 92.4386 110.104 94.1556C108.639 95.0424 108.383 95.0707 108.336 94.3725C108.317 94.0896 108.412 93.5235 108.61 92.816C109.168 90.7405 109.187 90.5989 109.13 89.948C109.102 89.5989 108.96 88.9481 108.828 88.4858C108.175 86.2876 107.949 85.1178 107.939 84.014C107.93 83.1933 107.778 82.1743 107.618 81.8536C107.372 81.3913 107.136 81.3536 105.056 81.4196C103.345 81.4763 103.099 81.4668 102.438 81.297C101.171 80.9668 100.452 80.4008 99.8947 79.2687C99.1196 77.6649 98.9589 75.778 99.4882 74.2026C100.15 72.2497 101.899 69.9667 103.572 68.8819C104.649 68.1837 105.538 67.8724 106.408 67.8724C106.824 67.8724 107.315 67.9384 107.561 68.0233C107.967 68.1648 109.291 68.929 109.877 69.3535C110.955 70.1366 112.647 70.4573 113.857 70.0988C114.443 69.929 116.002 68.6931 116.05 68.3629C116.144 67.7308 114.698 67.1459 112.807 67.061C112.165 67.0328 111.569 66.9572 111.437 66.8818C111.304 66.8158 110.926 66.5327 110.586 66.2403C109.82 65.5893 109.3 65.2969 108.506 65.0987C107.514 64.8441 106.757 65.061 105.888 65.8441C105.132 66.5233 103.865 67.0328 102.901 67.0328C102.277 67.0328 101.984 66.7497 101.984 66.1365C101.984 65.778 102.031 65.6459 102.248 65.4289C102.579 65.0987 102.995 64.9856 104.158 64.9101C104.649 64.8724 105.132 64.8252 105.226 64.7968C105.548 64.712 105.406 64.278 104.744 63.3535C104.139 62.495 104.073 62.4383 103.288 62.0327C101.918 61.3158 101.747 61.0799 102.267 60.4949C102.598 60.1082 103.298 59.8629 104.035 59.8629C104.867 59.8629 105.273 60.0326 105.935 60.6648C106.256 60.9761 106.616 61.2591 106.739 61.2969C107.079 61.3912 107.703 61.3818 108.015 61.2685C108.525 61.0893 108.525 60.8722 107.996 59.4383C107.816 58.9666 107.656 58.3912 107.618 58.1553C107.533 57.5987 107.741 57.0515 108.157 56.7402C108.506 56.4854 110.869 55.6458 111.304 55.627C111.484 55.627 111.749 55.7213 111.985 55.8723ZM85.1577 56.5987C85.1577 56.7968 85.6397 57.1364 86.5284 57.5798C87.6721 58.1459 88.3527 58.9384 88.2582 59.5892C88.2299 59.7969 88.1731 59.8156 87.1239 59.9289C85.9517 60.0515 85.3845 60.2214 85.2806 60.4855C85.186 60.7308 85.498 60.9195 86.6417 61.3251C88.5891 62.0138 89.317 62.4856 89.317 63.0799C89.317 63.4195 89.0522 63.6837 88.4851 63.9289C87.9557 64.1553 87.502 64.1177 87.1806 63.8157C87.0577 63.7025 86.9349 63.6176 86.9159 63.6459C86.897 63.6648 86.812 64.061 86.7364 64.5327C86.4149 66.2874 86.311 66.4478 85.2711 66.7875C84.3825 67.0893 83.494 67.6648 82.7661 68.429C82.076 69.1554 81.8965 69.5799 81.7641 70.7686C81.6317 71.9384 81.6696 72.0705 82.4257 72.8441C82.889 73.3347 82.9835 73.4856 82.9835 73.7686C82.9835 74.2309 82.8229 74.5328 82.4636 74.7309C81.9626 74.9951 81.7357 74.8724 81.3292 74.0894C80.1855 71.9101 79.3536 71.2969 78.5785 72.0705C78.0019 72.6459 78.2476 73.4101 79.278 74.212C80.8094 75.4007 81.1591 75.8912 81.3009 77.0234C81.3481 77.4101 81.4332 77.8064 81.4805 77.9008C81.6601 78.231 82.1611 78.3631 83.2292 78.3442L84.2312 78.3347L84.7512 78.6933C85.4224 79.1554 86.4055 80.2215 87.313 81.4668C87.71 82.014 88.2394 82.7026 88.4945 83.0046C89.0145 83.6083 90.2339 84.4479 91.0185 84.7498C91.3021 84.8536 91.8409 85.0518 92.219 85.1932C93.032 85.4858 93.6275 86.0046 93.7125 86.4951C93.7881 86.882 93.7031 87.0706 93.1454 87.6933C92.9185 87.948 92.5404 88.5612 92.3041 89.0613C91.7652 90.1839 91.5006 90.5329 90.9334 90.8819C90.3 91.2782 90.0449 91.5706 89.6384 92.382C89.4304 92.7782 89.005 93.4481 88.6836 93.8537C88.3527 94.2593 88.0881 94.6273 88.0881 94.6555C88.0881 94.6933 88.0219 94.7971 87.9557 94.8914C87.8329 95.0518 87.7761 95.0424 87.0766 94.6179C86.5095 94.2688 85.2239 93.4008 84.9875 93.2122C84.9686 93.1933 84.8741 92.5801 84.7796 91.8443C84.4771 89.5801 84.203 88.8347 83.4089 88.0707C82.5392 87.2404 82.0099 86.3819 81.6601 85.2781C81.4711 84.6649 81.4616 84.5046 81.5277 82.6932C81.5845 80.8253 81.5845 80.731 81.386 80.2876C81.1307 79.7026 80.9795 79.5423 80.4785 79.297C80.0531 79.0894 79.6939 78.6744 78.5785 77.0799C77.1889 75.1083 76.7257 74.0894 76.376 72.2781C76.168 71.2404 76.1964 70.9667 76.6974 68.995C77.4252 66.1082 79.2024 62.6081 81.1024 60.3157C82.1327 59.0609 84.8174 56.476 85.0915 56.4667C85.1294 56.4667 85.1577 56.5327 85.1577 56.5987Z" fill="#EEEEEE"/>
<path d="M95.4403 13.6913L37.5175 71.6483C35.3208 73.8463 35.3208 77.4099 37.5175 79.6079L95.4403 137.565C97.637 139.763 101.199 139.763 103.395 137.565L161.318 79.6079C163.515 77.4099 163.515 73.8463 161.318 71.6483L103.395 13.6913C101.199 11.4933 97.637 11.4933 95.4403 13.6913Z" stroke="#A7A7A7" stroke-opacity="0.3"/>
<path d="M181.911 158.019V217.578" stroke="url(#paint3_radial_373_87)"/>
<path d="M181.873 234.596V212.718" stroke="url(#paint4_radial_373_87)"/>
<path d="M181.69 215.956C186.609 215.956 190.597 211.966 190.597 207.043C190.597 202.121 186.609 198.131 181.69 198.131C176.771 198.131 172.783 202.121 172.783 207.043C172.783 211.966 176.771 215.956 181.69 215.956Z" fill="#ACD4A7"/>
<path d="M181.69 212.391C184.642 212.391 187.034 209.997 187.034 207.043C187.034 204.09 184.642 201.696 181.69 201.696C178.738 201.696 176.346 204.09 176.346 207.043C176.346 209.997 178.738 212.391 181.69 212.391Z" fill="#389D2D"/>
<path d="M100.804 302.638C105.723 302.638 109.711 298.648 109.711 293.726C109.711 288.804 105.723 284.813 100.804 284.813C95.8848 284.813 91.897 288.804 91.897 293.726C91.897 298.648 95.8848 302.638 100.804 302.638Z" fill="#ACD4A7"/>
<path d="M100.806 299.073C103.757 299.073 106.15 296.679 106.15 293.726C106.15 290.772 103.757 288.378 100.806 288.378C97.8541 288.378 95.4614 290.772 95.4614 293.726C95.4614 296.679 97.8541 299.073 100.806 299.073Z" fill="#389D2D"/>
<path d="M19.126 155.588V215.148" stroke="url(#paint5_radial_373_87)"/>
<path d="M19.0942 232.164V210.285" stroke="url(#paint6_radial_373_87)"/>
<path d="M18.9071 215.956C23.8264 215.956 27.8142 211.966 27.8142 207.043C27.8142 202.121 23.8264 198.131 18.9071 198.131C13.9879 198.131 10 202.121 10 207.043C10 211.966 13.9879 215.956 18.9071 215.956Z" fill="#ACD4A7"/>
<path d="M18.9087 212.391C21.8603 212.391 24.253 209.997 24.253 207.043C24.253 204.09 21.8603 201.696 18.9087 201.696C15.9572 201.696 13.5645 204.09 13.5645 207.043C13.5645 209.997 15.9572 212.391 18.9087 212.391Z" fill="#389D2D"/>
<path d="M100 351.462L103.609 345.209H96.3916L100 351.462ZM100 322.279C101.841 322.279 103.333 320.785 103.333 318.943C103.333 317.101 101.841 315.607 100 315.607C98.1591 315.607 96.6667 317.101 96.6667 318.943C96.6667 320.785 98.1591 322.279 100 322.279ZM100 345.834H100.625V318.943H100H99.3751V345.834H100Z" fill="url(#paint7_linear_373_87)"/>
</g>
<defs>
<linearGradient id="paint0_linear_373_87" x1="7.46338" y1="195.823" x2="224.384" y2="195.823" gradientUnits="userSpaceOnUse">
<stop stop-color="#737373" stop-opacity="0.11"/>
<stop offset="1" stop-color="#D9D9D9" stop-opacity="0.2"/>
</linearGradient>
<linearGradient id="paint1_linear_373_87" x1="61.7984" y1="38.4415" x2="137.422" y2="114.021" gradientUnits="userSpaceOnUse">
<stop/>
<stop offset="1" stop-color="#666666"/>
</linearGradient>
<linearGradient id="paint2_linear_373_87" x1="61.7984" y1="38.4415" x2="137.422" y2="114.021" gradientUnits="userSpaceOnUse">
<stop/>
<stop offset="1" stop-color="#666666"/>
</linearGradient>
<radialGradient id="paint3_radial_373_87" cx="0" cy="0" r="1" gradientUnits="userSpaceOnUse" gradientTransform="translate(nan nan) rotate(nan) scale(nan nan)">
<stop stop-color="#389D2D" stop-opacity="0"/>
<stop offset="1" stop-color="#389D2D"/>
</radialGradient>
<radialGradient id="paint4_radial_373_87" cx="0" cy="0" r="1" gradientUnits="userSpaceOnUse" gradientTransform="translate(nan nan) rotate(nan) scale(nan nan)">
<stop stop-color="#389D2D" stop-opacity="0"/>
<stop offset="1" stop-color="#389D2D"/>
</radialGradient>
<radialGradient id="paint5_radial_373_87" cx="0" cy="0" r="1" gradientUnits="userSpaceOnUse" gradientTransform="translate(nan nan) rotate(nan) scale(nan nan)">
<stop stop-color="#389D2D" stop-opacity="0"/>
<stop offset="1" stop-color="#389D2D"/>
</radialGradient>
<radialGradient id="paint6_radial_373_87" cx="0" cy="0" r="1" gradientUnits="userSpaceOnUse" gradientTransform="translate(nan nan) rotate(nan) scale(nan nan)">
<stop stop-color="#389D2D" stop-opacity="0"/>
<stop offset="1" stop-color="#389D2D"/>
</radialGradient>
<linearGradient id="paint7_linear_373_87" x1="100.625" y1="351.462" x2="100.625" y2="318.943" gradientUnits="userSpaceOnUse">
<stop stop-color="#4C4C4C"/>
<stop offset="1" stop-color="#878787"/>
</linearGradient>
<clipPath id="clip0_373_87">
<rect width="200" height="351" fill="white"/>
</clipPath>
</defs>
</svg>

<svg width="200" height="351" fill="none" xmlns="http://www.w3.org/2000/svg"><g clip-path="url(#a)"><path fill-rule="evenodd" clip-rule="evenodd" d="M91.306 99.324c5.404-3.116 14.165-3.116 19.569 0l68.499 39.499a6.25 6.25 0 0 1 3.128 5.336l1.209 90.681c0 6.232-4.38 13.81-9.784 16.926l-70.971 40.364a6.25 6.25 0 0 1-6.21-.019l-68.46-39.478c-5.404-3.116-9.785-10.694-9.785-16.927l.002-89.617a6.257 6.257 0 0 1 3.062-5.38l69.742-41.385zm17.612 1.129 68.499 39.5a6.253 6.253 0 0 1 3.129 5.334l1.209 90.681-.01.47c-.21 4.892-3.63 10.656-7.818 13.072l-70.971 40.362a6.242 6.242 0 0 1-6.21-.019l-68.46-39.477c-4.189-2.415-7.609-8.179-7.819-13.07l-.01-.471v-89.618a6.251 6.251 0 0 1 3.063-5.378l69.743-41.386.413-.227c4.346-2.264 11.054-2.188 15.242.227z" fill="url(#b)"/><path d="M112.541 227.926a11.202 11.202 0 0 1 11.246 11.253c0 2.2-.625 4.276-1.725 6.001l7.698 7.752-3.474 3.475-7.797-7.677a11.23 11.23 0 0 1-5.948 1.7c-6.248 0-11.246-5-11.246-11.251a11.202 11.202 0 0 1 11.246-11.253zm0 5.001a6.244 6.244 0 0 0-4.418 1.831 6.255 6.255 0 0 0 0 8.841 6.248 6.248 0 0 0 10.666-4.42 6.255 6.255 0 0 0-1.83-4.421 6.244 6.244 0 0 0-4.418-1.831zm-13.745-25.006a10.003 10.003 0 0 1 9.996 10.002c0 2.277-.774 4.377-2.049 6.077-2.149.8-4.073 2.076-5.673 3.675l-2.274.251a9.989 9.989 0 0 1-7.068-2.93 10.006 10.006 0 0 1 0-14.144 9.994 9.994 0 0 1 7.068-2.931zM78.804 247.93v-5.001c0-5.301 8.272-9.651 18.743-10.002-.8 1.95-1.25 4.051-1.25 6.252 0 3.225.95 6.251 2.5 8.751H78.803z" fill="#389D2D"/><path d="M96.654 109.873 35.39 145.264c-2.69 1.555-2.69 4.074 0 5.629l59.383 34.305c2.69 1.554 7.052 1.554 9.743 0l61.263-35.392c2.691-1.554 2.691-4.074 0-5.628l-59.382-34.305c-2.691-1.554-7.053-1.554-9.743 0z" stroke="#DDD"/><path d="m95.352 4.868-66.74 66.78a5.63 5.63 0 0 0 0 7.96l66.74 66.78a5.623 5.623 0 0 0 7.955 0l66.74-66.78a5.63 5.63 0 0 0 0-7.96l-66.74-66.78a5.623 5.623 0 0 0-7.955 0z" fill="url(#c)" stroke="url(#d)"/><path d="M95.603 50.967c-.104.018-.737.141-1.399.273-6.806 1.35-13.026 5.981-16.353 12.189-1.38 2.566-2.316 5.453-2.732 8.415-.18 1.35-.151 4.962.056 6.32.426 2.793 1.097 4.944 2.27 7.312 1.342 2.698 2.788 4.67 4.943 6.746 1.976 1.905 3.734 3.122 6.314 4.387 1.57.764 2.846 1.235 4.49 1.65 2.175.548 2.572.585 6.344.538 3.261-.038 3.497-.047 4.537-.273 7.468-1.651 13.527-6.387 16.817-13.142 1.55-3.17 2.287-6.151 2.429-9.67.312-8.349-3.734-16.208-10.795-20.953-2.08-1.396-4.944-2.67-7.402-3.283-2.136-.547-2.505-.575-6.06-.566-1.795.01-3.355.028-3.459.057zm5.795.867.501.057-.312.585c-1.182 2.227-1.343 2.5-1.711 2.811-.463.397-.747.482-2.099.614-1.73.16-2.24.32-2.779.858-.387.377-.68.962-.992 1.972-.379 1.188-.662 1.387-1.248.868-.51-.444-.794-.906-.898-1.49-.114-.614-.284-.907-.927-1.576-.661-.699-1.247-1.085-1.72-1.16-.227-.038-.492-.105-.577-.152-.16-.075-.453-.547-.453-.717 0-.113 1.663-.886 2.902-1.349 1.229-.453 3.138-.962 4.433-1.17 1.777-.282 4.225-.349 5.88-.15zm10.587 4.038c.605.415.983.887 2.675 3.378.652.953.945 1.075 1.635.67l.397-.227.549.698c2.089 2.642 3.545 5.547 4.367 8.708.236.877.614 2.953.558 3.01-.019.018-.274.094-.577.178-.917.236-1.219.133-2.184-.735-.954-.859-1.947-1.434-2.42-1.387-.264.028-.302.066-.321.311-.019.255.085.377 1.03 1.18 2.099 1.773 2.25 1.971 2.25 2.81 0 .586-.246 1.312-.51 1.482-.104.066-.492.16-.86.198-.794.075-1.191.236-1.721.67-.397.32-.491.556-.35.915.029.085.407.406.842.717.832.604 1.418 1.189 1.559 1.566.133.33.114 1.047-.018 1.292-.142.284-.379.434-1.173.784-.917.396-1.408.81-1.711 1.443-.387.83-.425 1.056-.501 3.453-.047 1.698-.104 2.368-.217 2.67-.425 1.132-2.325 2.783-5.18 4.5-1.465.886-1.721.915-1.768.216-.019-.282.076-.849.274-1.556.558-2.076.577-2.217.52-2.868-.028-.35-.17-1-.302-1.462-.653-2.198-.879-3.368-.889-4.472-.009-.82-.161-1.84-.321-2.16-.246-.463-.482-.5-2.562-.434-1.711.056-1.957.047-2.618-.123-1.267-.33-1.986-.896-2.543-2.028-.775-1.604-.936-3.491-.407-5.066.662-1.953 2.411-4.236 4.084-5.321 1.077-.698 1.966-1.01 2.836-1.01.416 0 .907.066 1.153.151.406.142 1.73.906 2.316 1.33 1.078.784 2.77 1.104 3.98.746.586-.17 2.145-1.406 2.193-1.736.094-.632-1.352-1.217-3.243-1.302-.642-.028-1.238-.104-1.37-.18-.133-.065-.511-.348-.851-.64-.766-.652-1.286-.944-2.08-1.142-.992-.255-1.749-.038-2.618.745-.756.68-2.023 1.189-2.987 1.189-.624 0-.917-.283-.917-.897 0-.358.047-.49.264-.707.331-.33.747-.443 1.91-.519.491-.038.974-.085 1.068-.113.322-.085.18-.519-.482-1.444-.605-.858-.671-.915-1.456-1.32-1.37-.717-1.541-.953-1.021-1.538.331-.387 1.031-.632 1.768-.632.832 0 1.238.17 1.9.802.321.311.681.594.804.632.34.094.964.085 1.276-.028.51-.18.51-.397-.019-1.83-.18-.472-.34-1.048-.378-1.284-.085-.556.123-1.104.539-1.415.349-.255 2.712-1.094 3.147-1.113.18 0 .445.094.681.245zm-26.827.727c0 .198.482.537 1.37.98 1.144.567 1.825 1.36 1.73 2.01-.028.208-.085.227-1.134.34-1.172.122-1.74.292-1.843.556-.095.246.217.434 1.36.84 1.948.689 2.676 1.16 2.676 1.755 0 .34-.265.604-.832.849-.53.226-.983.189-1.304-.113-.123-.114-.246-.198-.265-.17-.019.019-.104.415-.18.887-.321 1.754-.425 1.915-1.465 2.254-.889.302-1.777.878-2.505 1.642-.69.726-.87 1.15-1.002 2.34-.132 1.17-.094 1.301.662 2.075.463.49.558.642.558.925 0 .462-.161.764-.52.962-.501.264-.728.141-1.135-.642-1.143-2.179-1.975-2.792-2.75-2.019-.577.576-.331 1.34.699 2.142 1.531 1.189 1.881 1.68 2.023 2.811.047.387.132.783.18.878.18.33.68.462 1.748.443l1.002-.01.52.36c.671.461 1.654 1.528 2.562 2.773.397.547.926 1.236 1.181 1.538.52.603 1.74 1.443 2.525 1.745.283.104.822.302 1.2.443.813.293 1.409.812 1.494 1.302.075.387-.01.576-.568 1.198-.227.255-.605.868-.84 1.368-.54 1.123-.804 1.472-1.372 1.82-.633.397-.888.69-1.295 1.501a11.403 11.403 0 0 1-.954 1.472c-.331.405-.596.773-.596.802 0 .037-.066.141-.132.235-.123.16-.18.151-.88-.273-.566-.35-1.852-1.217-2.088-1.406-.02-.019-.114-.632-.208-1.368-.303-2.264-.577-3.01-1.371-3.773-.87-.83-1.4-1.69-1.749-2.793-.189-.613-.198-.773-.132-2.585.056-1.868.056-1.962-.142-2.405-.255-.585-.406-.746-.907-.991-.426-.208-.785-.623-1.9-2.217-1.39-1.972-1.853-2.99-2.203-4.802-.208-1.038-.18-1.311.321-3.283.728-2.887 2.505-6.387 4.405-8.68 1.03-1.254 3.715-3.839 3.99-3.848.037 0 .066.066.066.132z" fill="#EEE"/><path d="M95.44 13.691 37.518 71.648a5.63 5.63 0 0 0 0 7.96l57.922 57.957a5.622 5.622 0 0 0 7.955 0l57.923-57.957a5.63 5.63 0 0 0 0-7.96l-57.923-57.957a5.622 5.622 0 0 0-7.955 0z" stroke="#A7A7A7" stroke-opacity=".3"/><path d="M181.911 158.019v59.559" stroke="url(#e)"/><path d="M181.873 234.596v-21.878" stroke="url(#f)"/><path d="M181.69 215.956c4.919 0 8.907-3.99 8.907-8.913 0-4.922-3.988-8.912-8.907-8.912-4.919 0-8.907 3.99-8.907 8.912 0 4.923 3.988 8.913 8.907 8.913z" fill="#ACD4A7"/><path d="M181.69 212.391a5.345 5.345 0 0 0 5.344-5.348 5.345 5.345 0 1 0-10.688 0 5.345 5.345 0 0 0 5.344 5.348z" fill="#389D2D"/><path d="M100.804 302.638c4.919 0 8.907-3.99 8.907-8.912 0-4.922-3.988-8.913-8.907-8.913-4.92 0-8.907 3.991-8.907 8.913 0 4.922 3.988 8.912 8.907 8.912z" fill="#ACD4A7"/><path d="M100.806 299.073a5.346 5.346 0 0 0 5.344-5.347 5.346 5.346 0 0 0-5.344-5.348 5.346 5.346 0 0 0-5.345 5.348 5.346 5.346 0 0 0 5.345 5.347z" fill="#389D2D"/><path d="M19.126 155.588v59.56" stroke="url(#g)"/><path d="M19.094 232.164v-21.879" stroke="url(#h)"/><path d="M18.907 215.956c4.92 0 8.907-3.99 8.907-8.913 0-4.922-3.988-8.912-8.907-8.912-4.92 0-8.907 3.99-8.907 8.912 0 4.923 3.988 8.913 8.907 8.913z" fill="#ACD4A7"/><path d="M18.909 212.391a5.346 5.346 0 0 0 5.344-5.348 5.346 5.346 0 0 0-5.344-5.347 5.346 5.346 0 0 0-5.344 5.347 5.346 5.346 0 0 0 5.344 5.348z" fill="#389D2D"/><path d="m100 351.462 3.609-6.253h-7.217l3.608 6.253zm0-29.183a3.335 3.335 0 0 0 3.333-3.336 3.335 3.335 0 0 0-3.333-3.336 3.335 3.335 0 0 0-3.333 3.336 3.335 3.335 0 0 0 3.333 3.336zm0 23.555h.625v-26.891h-1.25v26.891H100z" fill="url(#i)"/></g><defs><radialGradient id="e" cx="0" cy="0" r="1" gradientUnits="userSpaceOnUse"><stop stop-color="#389D2D" stop-opacity="0"/><stop offset="1" stop-color="#389D2D"/></radialGradient><radialGradient id="f" cx="0" cy="0" r="1" gradientUnits="userSpaceOnUse"><stop stop-color="#389D2D" stop-opacity="0"/><stop offset="1" stop-color="#389D2D"/></radialGradient><radialGradient id="g" cx="0" cy="0" r="1" gradientUnits="userSpaceOnUse"><stop stop-color="#389D2D" stop-opacity="0"/><stop offset="1" stop-color="#389D2D"/></radialGradient><radialGradient id="h" cx="0" cy="0" r="1" gradientUnits="userSpaceOnUse"><stop stop-color="#389D2D" stop-opacity="0"/><stop offset="1" stop-color="#389D2D"/></radialGradient><linearGradient id="b" x1="7.463" y1="195.823" x2="224.384" y2="195.823" gradientUnits="userSpaceOnUse"><stop stop-color="#737373" stop-opacity=".11"/><stop offset="1" stop-color="#D9D9D9" stop-opacity=".2"/></linearGradient><linearGradient id="c" x1="61.798" y1="38.441" x2="137.422" y2="114.021" gradientUnits="userSpaceOnUse"><stop/><stop offset="1" stop-color="#666"/></linearGradient><linearGradient id="d" x1="61.798" y1="38.441" x2="137.422" y2="114.021" gradientUnits="userSpaceOnUse"><stop/><stop offset="1" stop-color="#666"/></linearGradient><linearGradient id="i" x1="100.625" y1="351.462" x2="100.625" y2="318.943" gradientUnits="userSpaceOnUse"><stop stop-color="#4C4C4C"/><stop offset="1" stop-color="#878787"/></linearGradient><clipPath id="a"><path fill="#fff" d="M0 0h200v351H0z"/></clipPath></defs></svg>
